X:1
T:When You Know Jesus, Too
T:When You Know Jesus, Too
T:Bentley DeForest Ackley
T:Ina Duley Ogdon, 1914
T:Public Domain Courtesy of the Cyber Hymnal™
C:Bentley DeForest Ackley
Z:Public Domain
Z:Courtesy of the Cyber Hymnal™
%%score ( 1 2 ) ( 3 4 )
L:1/8
Q:1/4=100
M:4/4
K:Ab
V:1 treble 
V:2 treble 
V:3 bass 
V:4 bass 
V:1
 [CE]2 | [Ec]3 [Ec] [DB][CA][DF][DA] | [CE]4- [CE][CE][CF][CA] | [DG]4- [DG][DE][DG][Fd] | %4
w: 1.~When|you my Je- sus un- der-|stand, * When you ac-|cept * His lov- ing|
w: 2.~His|joy will glad- den ev- ery|day, * His bless- ing|shine * a- long the|
w: 3.~You’ll|see His mer- cy thro’ your|tears, * His peace will|hal- * low all the|
w: 4.~You’ll|know His way is al- ways|best, * And glad- ly|leave * to Him the|
 [Ec]6 [CE]2 | [Ec]3 [Ec] [DB][CA][DF][DA] | [CE]6 [Ec]2 | [EB]3 [EB] [=Dc] [DB]3 | [EB]6 || %9
w: hand, A|hap- py morn will dawn for|you, When|you know Je- sus,|too.|
w: way, And|you will share His prom- ise|true, When|you know Je- sus,|too.|
w: years; The|val- ley holds no dread for|you, When|you know Je- sus,|too.|
w: rest, And|tell what He has done for|you, When|you know Je- sus,|too.|
"^Refrain" [DG][CA] | [DB]2 [DB]2 z2 [CA][EB] | [Ec]2 [Ec]2 z2 [EA]2 | %12
w: |||
w: When you|know Him, when you|know Him, You’ll|
w: |||
w: |||
 [Ed]3 [Ec] [=DB][DA][DG][DA] | B6 E2 | [Ee]3 [Ed] [Ec][DB][CA][CE] | [DF]6 [EA]>[FB] | %16
w: ||||
w: love Him just as oth- ers|do; A|hap- py morn will dawn for|you When you|
w: ||||
w: ||||
 [Ec]3 [Ec] [DB] [DB]3 | [CA]6 |] %18
w: ||
w: know my Je- sus,|too.|
w: ||
w: ||
V:2
 x2 | x8 | x8 | x8 | x8 | x8 | x8 | x8 | x6 || x2 | x8 | x8 | x8 | (EE=DD _D2) (DE) | x8 | x8 | %16
 x8 | x6 |] %18
V:3
 [A,,A,]2 | [A,,A,]3 [A,,A,] [A,,E,][A,,E,][A,,A,][A,,F,] | %2
w: ||
 [A,,A,]4- [A,,A,][A,,A,][A,,A,][A,,E,] | [B,,E,]4- [B,,E,][E,G,][E,B,][E,G,] | A,6 [A,,A,]2 | %5
w: ||as *|
 [A,,A,]3 [A,,A,] [A,,E,][A,,E,][A,,A,][A,,F,] | [A,,A,]6 [A,,A,]2 | %7
w: ||
 [B,,G,]3 [B,,G,] [B,,F,] [B,,A,]3 | [E,G,]6 || [E,B,][E,A,] | [E,G,]2 [E,G,]2 z2 [F,A,][E,G,] | %11
w: ||||
 A,2 A,2 z2 [C,A,]2 | [B,,G,]3 [A,,A,] [B,,F,][B,,F,][B,,B,][B,,A,] | %13
w: oth- ers *||
 [E,G,][E,G,][F,A,][F,A,] [E,G,]2 [E,G,]2 | [C,A,]3 [B,,G,] [A,,A,][A,,E,][A,,E,][A,,A,] | %15
w: * do; * * * *||
 [D,A,]6 [C,A,]>[D,A,] | [E,A,]3 [E,A,] [E,G,] [E,G,]3 | [A,,E,A,]6 |] %18
w: |||
V:4
 x2 | x8 | x8 | x8 | A,6 x2 | x8 | x8 | x8 | x6 || x2 | x8 | A,2 A,2 x4 | x8 | x8 | x8 | x8 | x8 | %17
 x6 |] %18

